X:1
T:Kirk Ella, 83.36
T:Kirk Ella, 83.36
T:Henry Ernest Nichol (1862-1926)
T:Public Domain Courtesy of the Cyber Hymnal™
C:Henry Ernest Nichol (1862-1926)
Z:Public Domain
Z:Courtesy of the Cyber Hymnal™
%%score ( 1 2 ) ( 3 4 )
L:1/8
Q:1/2=115
M:3/2
K:G
V:1 treble 
V:2 treble 
V:3 bass 
V:4 bass 
V:1
 ([Gd]4 [Fc]4) [GB]4 | (B4 A4) E4 | (F4 G4) [DA]4 | [Ec]8 [DB]4 | (A4 B4) [FA]4 | [EG]12 | %6
 (F4 G4) [=DF]4 | E12 | [B,D]8 [DB]4 | (B4 A4) [=CE]4 | (F4 G4 A4) | [B,G]12 |] %12
V:2
 x12 | E8 E4 | E8 x4 | x12 | F8 x4 | x12 | ^D8 x4 | (E4 D4 C4) | x12 | ^C8 x4 | C12 | x12 |] %12
V:3
 ([G,,B,]4 [A,,C]4) [B,,D]4 | (D4 C4) [^C,A,]4 | ([D,C]4 [E,B,]4) [F,A,]4 | G,8 [G,D]4 | %4
 [^D,B,]8 [D,B,]4 | (B,4 C4 B,4) | [B,,A,]8 [B,,A,]4 | [C,G,]12 | [D,G,]8 [E,G,]4 | %9
 [D,E,]8 [D,G,]4 | (A,4 G,4 F,4) | [G,,G,]12 |] %12
V:4
 x12 | ^C,8 x4 | x12 | G,8 x4 | x12 | E,12 | x12 | x12 | x12 | x12 | D,12 | x12 |] %12

